symbols/web/volunteer_activism/materialsymbolsoutlined/volunteer_activism_wght200grad200_20px.svg

<svg xmlns="http://www.w3.org/2000/svg" height="20" width="20"><path d="M13.167 9.646Q11.229 7.938 9.75 6.365 8.271 4.792 8.271 3.417q0-1.084.791-1.875Q9.854.75 10.938.75q.645 0 1.229.312.583.313 1 .813.416-.5 1.021-.813.604-.312 1.27-.312 1.063 0 1.834.792.77.791.77 1.875 0 1.375-1.479 2.948t-3.416 3.281Zm0-1.958q1.271-1.188 2.354-2.344 1.083-1.156 1.083-1.948 0-.479-.333-.833-.333-.355-.813-.355-.312 0-.614.136-.302.135-.573.51l-1.083 1.271-1.084-1.271q-.292-.375-.583-.51-.292-.136-.583-.136-.5 0-.855.355-.354.354-.354.833 0 .792 1.083 1.948 1.084 1.156 2.355 2.344Zm0-2.75ZM11.5 18.146l-5.979-1.729v1.229H.917V9H7.25l5.146 1.917q.729.291 1.073.729.343.437.343 1.416h1.896q1 0 1.646.719.646.719.646 1.677v.646Zm-9.125-1.958h1.687v-5.73H2.375Zm9.083.437 5.042-1.583q-.083-.23-.24-.375-.156-.146-.552-.146h-4.104q-.5 0-.989-.063-.49-.062-.636-.125l-2.041-.666.5-1.417 1.52.562q.48.167.875.209.396.041 1.625.041 0-.374-.146-.552-.145-.177-.416-.26l-4.917-1.792H5.521v4.48Zm-7.396-3.313Zm8.396-.25Zm-8.396.25Zm1.459 0Z"/></svg>

<svg xmlns="http://www.w3.org/2000/svg" height="20" width="20"><path d="M13.167 9.646Q11.229 7.938 9.75 6.365Q8.271 4.792 8.271 3.417Q8.271 2.333 9.062 1.542Q9.854 0.75 10.938 0.75Q11.583 0.75 12.167 1.062Q12.75 1.375 13.167 1.875Q13.583 1.375 14.188 1.062Q14.792 0.75 15.458 0.75Q16.521 0.75 17.292 1.542Q18.062 2.333 18.062 3.417Q18.062 4.792 16.583 6.365Q15.104 7.938 13.167 9.646ZM13.167 7.688Q14.438 6.5 15.521 5.344Q16.604 4.188 16.604 3.396Q16.604 2.917 16.271 2.563Q15.938 2.208 15.458 2.208Q15.146 2.208 14.844 2.344Q14.542 2.479 14.271 2.854L13.188 4.125L12.104 2.854Q11.812 2.479 11.521 2.344Q11.229 2.208 10.938 2.208Q10.438 2.208 10.083 2.563Q9.729 2.917 9.729 3.396Q9.729 4.188 10.812 5.344Q11.896 6.5 13.167 7.688ZM13.167 4.938Q13.167 4.938 13.167 4.938Q13.167 4.938 13.167 4.938Q13.167 4.938 13.167 4.938Q13.167 4.938 13.167 4.938Q13.167 4.938 13.167 4.938Q13.167 4.938 13.167 4.938Q13.167 4.938 13.167 4.938Q13.167 4.938 13.167 4.938Q13.167 4.938 13.167 4.938Q13.167 4.938 13.167 4.938Q13.167 4.938 13.167 4.938Q13.167 4.938 13.167 4.938ZM11.5 18.146 5.521 16.417V17.646H0.917V9H7.25L12.396 10.917Q13.125 11.208 13.469 11.646Q13.812 12.083 13.812 13.062H15.708Q16.708 13.062 17.354 13.781Q18 14.5 18 15.458V16.104ZM2.375 16.188H4.062V10.458H2.375ZM11.458 16.625 16.5 15.042Q16.417 14.812 16.26 14.667Q16.104 14.521 15.708 14.521H11.604Q11.104 14.521 10.615 14.458Q10.125 14.396 9.979 14.333L7.938 13.667L8.438 12.25L9.958 12.812Q10.438 12.979 10.833 13.021Q11.229 13.062 12.458 13.062Q12.458 12.688 12.312 12.51Q12.167 12.333 11.896 12.25L6.979 10.458H5.521V14.938ZM4.062 13.312ZM12.458 13.062Q12.458 13.062 12.458 13.062Q12.458 13.062 12.458 13.062Q12.458 13.062 12.458 13.062Q12.458 13.062 12.458 13.062Q12.458 13.062 12.458 13.062Q12.458 13.062 12.458 13.062Q12.458 13.062 12.458 13.062Q12.458 13.062 12.458 13.062ZM4.062 13.312ZM5.521 13.312Q5.521 13.312 5.521 13.312Q5.521 13.312 5.521 13.312Q5.521 13.312 5.521 13.312Q5.521 13.312 5.521 13.312Q5.521 13.312 5.521 13.312Q5.521 13.312 5.521 13.312Q5.521 13.312 5.521 13.312Q5.521 13.312 5.521 13.312Z"/></svg>
